X: 407
T: An Hour before Day
N:"Slow with expression"
N:"collected by J.O'Neill"
N:Irish title: uair rio.me sgainea.d an lae
B:O'Neill's 407
Z:Transcribed by henrik.norbeck@mailbox.swipnet.se
M:C
L:1/8
K:G
(3DGA | B2 (cB) (BA)(BA) | {GA}G>(FGA) (BA) z D | (DEF).D G>(F D/C/B,/C/) | (DG)(GF) G3 :|
D | (GB)(cA) d>cBc | dcBA GFD>c | dcBA BAGF | G>FDC D2 (3DGA |
B2 (cB) (TBA)(BA) | {GA}G>F(GA) (BA) z D | (DE{G}F)D G>(F D/C/B,/C/) | (DG)(GF) G2 ||


